dist/assets/img/main/arrow.svg

<svg width="91" height="74" viewBox="0 0 91 74" fill="none" xmlns="http://www.w3.org/2000/svg">
<path d="M43.4713 73.6227C43.8618 74.0133 44.4949 74.0133 44.8855 73.6227L51.2494 67.2588C51.6399 66.8683 51.64 66.2351 51.2494 65.8446C50.8589 65.454 50.2257 65.454 49.8352 65.8446L44.1784 71.5014L38.5215 65.8446C38.131 65.454 37.4978 65.454 37.1073 65.8446C36.7168 66.2351 36.7168 66.8683 37.1073 67.2588L43.4713 73.6227ZM75.02 8.62274C72.0283 10.2597 69.3039 11.9004 66.8251 13.5735L67.944 15.2313C70.3627 13.5987 73.0328 11.9899 75.98 10.3773L75.02 8.62274ZM52.8265 26.704C49.1878 31.8309 46.8472 37.586 45.3844 44.4121L47.34 44.8312C48.7573 38.2174 51.0048 32.7264 54.4575 27.8616L52.8265 26.704ZM43.3307 63.4032C43.2239 66.4013 43.1784 69.5664 43.1784 72.9156L45.1784 72.9156C45.1784 69.5839 45.2237 66.4433 45.3294 63.4744L43.3307 63.4032Z" fill="#0C4CD7"/>
<path d="M28.8185 48.6229C28.4279 49.0134 27.7948 49.0134 27.4042 48.6229L21.0403 42.2589C20.6498 41.8684 20.6498 41.2352 21.0403 40.8447C21.4308 40.4542 22.064 40.4542 22.4545 40.8447L28.1114 46.5016L33.7682 40.8447C34.1587 40.4542 34.7919 40.4542 35.1824 40.8447C35.5729 41.2352 35.5729 41.8684 35.1824 42.2589L28.8185 48.6229ZM12.2541 0.343219C15.4054 3.96142 18.008 7.31665 20.1443 10.6049L18.4672 11.6945C16.3957 8.50597 13.855 5.22642 10.7459 1.65678L12.2541 0.343219ZM28.5479 35.0166C28.9526 38.9048 29.1114 43.1465 29.1114 47.9158L27.1114 47.9158C27.1114 43.1872 26.9537 39.0196 26.5586 35.2236L28.5479 35.0166Z" fill="#0C4CD7"/>
</svg>

<svg width="91" height="74" viewBox="0 0 91 74" fill="none" xmlns="http://www.w3.org/2000/svg"><path d="M43.471 73.623a1 1 0 001.415 0l6.363-6.364a1 1 0 10-1.414-1.414L44.178 71.5l-5.656-5.656a1 1 0 10-1.415 1.414l6.364 6.364zm31.549-65c-2.992 1.637-5.716 3.277-8.195 4.95l1.119 1.658c2.419-1.632 5.089-3.241 8.036-4.854l-.96-1.754zM52.827 26.704c-3.64 5.127-5.98 10.882-7.443 17.708l1.956.42c1.417-6.615 3.665-12.106 7.117-16.97l-1.63-1.158zm-9.496 36.7a268.214 268.214 0 00-.153 9.512h2c0-3.332.046-6.473.151-9.442l-1.998-.07zM28.819 48.623a1 1 0 01-1.415 0l-6.364-6.364a1 1 0 011.415-1.414l5.656 5.657 5.657-5.657a1 1 0 011.414 1.414l-6.364 6.364zM12.253.343c3.151 3.618 5.754 6.974 7.89 10.262l-1.677 1.09c-2.071-3.189-4.612-6.469-7.721-10.038L12.254.343zm16.294 34.674c.405 3.888.563 8.13.563 12.899h-2c0-4.729-.157-8.896-.552-12.692l1.989-.207z" fill="#0C4CD7"/></svg>
